!!!SOCIAL_FUNCTION:	songs with hunting dance
!!!PDT:	1956
!!!OTL: No_59_Calusa_Hunting_Dance_Song_(c).krn
!!!LANG: Non-Tone
!!!LING_GROUP: Muskogean
!!!REG: Florida
**kern
*staff1
=1-
*clefF4
*k[b-e-a-]
*M2/4
4r
8B-\L
8B-\J
=2
4.B-\
8B-\
=3
[2B-\
=4
4B-\]
4B-\
=5
[2B-\
=6
4B-\]
4G\
=7||
*M3/4
[2G\
8G\L]
8E-\J
=8||
*M2/4
[2G\
=9
4G\]
4B-\
=10||
*M3/4
4B-\
4.G\
8A-\
=11||
*M2/4
[2A-\
=12
4A-\]
4G\
=13
[2E-\
=14
4E-\]
8BB-/L
8BB-/J
=15||
*M3/4
2E-\
4r
=16
2BB-/
4BB-/
=17
2BB-/
4E-\
=18
2E-\
4E-\
=19
4F\
8A-\L
8F\J
4E-\
=20
4D\
8BB-/L
8BB-/J
4BB-/
=21||
*M2/4
4BB-/
4BB-/
=22
4r
4BB-/
=23||
*M3/4
4GG/
4GG/
8r
8GG/
=24
2GG/
4r
==
*-
